customize.dist/code.svg

<svg enable-background="new 0 0 24 24" viewBox="0 0 24 24" xmlns="http://www.w3.org/2000/svg" xmlns:xlink="http://www.w3.org/1999/xlink"><linearGradient id="a" gradientUnits="userSpaceOnUse" x1="1.6" x2="22.4" y1="12" y2="12"><stop offset="0" stop-color="#4592c4"/><stop offset="1" stop-color="#545acd"/></linearGradient><path d="m12.9 3 2 .4-3.8 17.6-2-.4zm6.7 9-3.6-3.6v-2.8l6.4 6.4-6.4 6.4v-2.8zm-18 0 6.4-6.4v2.8l-3.6 3.6 3.6 3.6v2.8z" fill="url(#a)"/></svg>

<?xml version="1.0" encoding="utf-8"?>
<!-- Generator: Adobe Illustrator 21.1.0, SVG Export Plug-In . SVG Version: 6.00 Build 0)  -->
<svg version="1.1" id="Layer_1" xmlns="http://www.w3.org/2000/svg" xmlns:xlink="http://www.w3.org/1999/xlink" x="0px" y="0px"
	 viewBox="0 0 24 24" style="enable-background:new 0 0 24 24;" xml:space="preserve">
<style type="text/css">
	.st0{fill:url(#SVGID_1_);}
</style>
<linearGradient id="SVGID_1_" gradientUnits="userSpaceOnUse" x1="1.6" y1="12" x2="22.4" y2="12">
	<stop  offset="0" style="stop-color:#4592C4"/>
	<stop  offset="1" style="stop-color:#545ACD"/>
</linearGradient>
<path class="st0" d="M12.9,3l2,0.4L11.1,21l-2-0.4L12.9,3 M19.6,12L16,8.4V5.6l6.4,6.4L16,18.4v-2.8L19.6,12 M1.6,12L8,5.6v2.8
	L4.4,12L8,15.6v2.8L1.6,12z"/>
</svg>
